X:12102
T:Frost Is All Over, The
R:Jig
B:Tuneworks Tunebook (https://www.tuneworks.co.uk/)
G:Tuneworks
Z:Jon Warbrick <jon.warbrick@googlemail.com>
M:6/8
L:1/8
K:D
|: "D"def edB | AFD E2 D | DFA AFA | "G"Bee "A"edc | 
"D"def edB | AFD E2 D | DFA AFA | "A"Bdc "D"d2 d :|
|: "D"fef agf | "G"gfg bag | "D"fef agf | "A"gfg efg | 
"D"fef afd | "G"gfg bag | "D"fga "A"efg | "D"fdc d3 :| 